!!!!SEGMENT: pl-cz--iii-446--004_maader-ludwik--requiem-in-es-sanctus.krn
!!!cenid: 17xx:973
!!!COM: Maader, Ludwik
!!!COM-rismID:
!!!CDT: <1794->1798
!!!CNT:
!!!OPR: Requiem in Es
!!!OTL: Sanctus
!!!OMV: 004
!!!PDT:
!!!AGN: Sacred; Requiem
!!!SMS-siglum: PL-CZ
!!!SMS-shelfmark: III-446
!!!SMS-shelfwork: 001-004 M
!!!SMS-variant:
!!!SMS-altvar:
!!!NIFC-rismSourceID: 300000767
!!!NIFC-islandoraID: pl-cz:38340
!!!URL-pdf-islandora: https://repozytorium.nifc.pl/islandora/object/pl-cz%3A38340/datastream/PDF/view
!!!URL-scan:
!!!ONB-nifc: UWAGA: części Requiem: Requiem, Dies irae, Domine Jesu Christe, Sanctus, Benedictus
!!!AIN: 1 alto 1 bass 2 clars 2 cor 1 organ 1 soprn 1 tenor 2 violn
!!!key: E-
**kern	**fba	**dynam	**kern	**kern	**kern	**text	**kern	**text	**kern	**text	**kern	**text	**kern	**kern	**kern	**kern
*	*	*	*group4	*group4	*group3	*	*group3	*	*group3	*	*group3	*	*group2	*group2	*group1	*group1
*part11	*part11	*part11	*part10	*part9	*part8	*part8	*part7	*part7	*part6	*part6	*part5	*part5	*part4	*part3	*part2	*part1
*staff11	*	*	*staff10	*staff9	*staff8	*staff8	*staff7	*staff7	*staff6	*staff6	*staff5	*staff5	*staff4	*staff3	*staff2	*staff1
*I"Organo	*	*	*I"Violino Secundo.	*I"Violino Primo.	*I"Baſso.	*	*I"Tenore	*	*I"Alto	*	*I"Canto	*	*I"Cornu Secundo in Dis.	*I"Cornu Primo in Eb.	*I"Clarinetto Secondo obligato.	*I"Clarinetto Primo Obligato
*I'org	*	*	*I'vl 2	*I'vl 1	*I'B	*	*I'T	*	*I'A	*	*I'S	*	*I'cor 2 in E|b	*I'cor 1 in E|b	*I'cl 2	*I'cl 1
*Iorgan	*	*	*Ivioln	*Ivioln	*Ibass	*	*Itenor	*	*Ialto	*	*Isoprn	*	*Icor	*Icor	*Iclars	*Iclars
*ICklav	*	*	*ICstr	*ICstr	*ICvox	*	*ICvox	*	*ICvox	*	*ICvox	*	*ICbras	*ICbras	*ICww	*ICww
*clefF4	*	*	*clefG2	*clefG2	*clefF4	*	*clefC4	*	*clefC3	*	*clefC1	*	*clefG2	*clefG2	*clefG2	*clefG2
*	*	*	*	*	*	*	*	*	*	*	*	*	*ITrd5c9	*ITrd5c9	*ITrd1c2	*ITrd1c2
*k[b-e-a-]	*	*	*k[b-e-a-]	*k[b-e-a-]	*k[e-b-a-]	*	*k[b-e-a-]	*	*k[b-e-a-]	*	*k[b-e-a-]	*	*k[b-e-a-]	*k[b-e-a-]	*k[b-e-]	*k[b-e-]
*E-:	*	*	*E-:	*E-:	*E-:	*	*E-:	*	*E-:	*	*E-:	*	*E-:	*E-:	*E-:	*E-:
*M2/4	*	*	*M2/4	*M2/4	*M2/4	*	*M2/4	*	*M2/4	*	*M2/4	*	*M2/4	*M2/4	*M2/4	*M2/4
*all\right	*	*	*all\right	*all\right	*all\right	*	*all\right	*	*all\right	*	*all\right	*	*all\right	*all\right	*all\right	*all\right
=1	=1	=1	=1	=1	=1	=1	=1	=1	=1	=1	=1	=1	=1	=1	=1	=1
!	!	!	!	!	!LO:TX:t=P:problem=kolejność znaków E- B- A-	!	!	!	!	!	!LO:TX:t=P:problem=kolejność znaków b- ee- a-	!	!	!	!LO:TX:t=P:problem=in B-, brak bemola przy kluczu	!LO:TX:t=P:problem=in B-, brak bemola przy kluczu
!LO:TX:a:B:t=Adagio	!	!	!LO:TX:a:B:t=Adagio	!LO:TX:a:B:t=Adagio	!LO:TX:a:B:t=Adagio	!	!LO:TX:a:B:t=Adagio	!	!LO:TX:a:B:t=Adagio	!	!LO:TX:a:B:t=Adagio	!	!LO:TX:a:B:t=Adagio	!LO:TX:a:B:t=Adagio	!LO:TX:a:B:t=adagio	!LO:TX:a:B:t=Adagio
4E-\	3	.	4g/	4ee-\	4E-\	San-	4B-\	San-	4g\	San-	4ee-\	San-	4G/	4e-\	4g/	4ee-\
4E-\	.	.	4g/	4ee-\	4E-\	-ctus	4B-\	-ctus	4g\	-ctus	4ee-\	-ctus	4G/	4e-\	4g/	4ee-\
=2	=2	=2	=2	=2	=2	=2	=2	=2	=2	=2	=2	=2	=2	=2	=2	=2
!	!	!	!	!	!	!	!	!	!	!	!	!	!	!	!	!LO:TX:a:i:t=Solo
8E-\	.	.	2r	2r	2r	.	2r	.	2r	.	2r	.	8E-/	8e-\	16r	16r
!	!	!	!	!	!	!	!	!	!	!	!	!	!	!	!LO:TX:a:i:t=Solo	!
.	.	.	.	.	.	.	.	.	.	.	.	.	.	.	16ee-\LL	16gg\LL
8r	.	.	.	.	.	.	.	.	.	.	.	.	8r	8r	16ee-\	16gg\
.	.	.	.	.	.	.	.	.	.	.	.	.	.	.	16ee-\JJ	16gg\JJ
4r	.	.	.	.	.	.	.	.	.	.	.	.	4r	4r	16ee-\LL	16gg\LL
.	.	.	.	.	.	.	.	.	.	.	.	.	.	.	32dd\L	32ff\L
.	.	.	.	.	.	.	.	.	.	.	.	.	.	.	32ee-\J	32gg\J
!	!	!	!	!	!	!	!	!	!	!	!	!	!	!	!	!LO:SIC:v:s=16aa-\
.	.	.	.	.	.	.	.	.	.	.	.	.	.	.	16ff\	16aa\
.	.	.	.	.	.	.	.	.	.	.	.	.	.	.	16ee-\JJ	16gg\JJ
=3	=3	=3	=3	=3	=3	=3	=3	=3	=3	=3	=3	=3	=3	=3	=3	=3
*	*	*	*	*	*	*ij	*	*ij	*	*ij	*	*ij	*	*	*	*
4BB-/	3	.	4dd\	4ff\	4B-\	San-	4d\	San-	4b-\	San-	4ff\	San-	4B-/	4f\	4dd\	4ff\
4BB-/	.	.	4dd\	4ff\	4BB-/	-ctus	4d\	-ctus	4b-\	-ctus	4ff\	-ctus	4B-/	4f\	4dd\	4ff\
=4	=4	=4	=4	=4	=4	=4	=4	=4	=4	=4	=4	=4	=4	=4	=4	=4
8BB-/	.	.	2r	2r	2r	.	2r	.	2r	.	2r	.	8BB-/	8B-/	16r	16r
!	!	!	!	!	!	!	!	!	!	!	!	!	!	!	!	!LO:SIC:v:s=16aa-\LL
.	.	.	.	.	.	.	.	.	.	.	.	.	.	.	16ff\LL	16aa\LL
!	!	!	!	!	!	!	!	!	!	!	!	!	!	!	!	!LO:SIC:v:s=16aa-\
8r	.	.	.	.	.	.	.	.	.	.	.	.	8r	8r	16ff\	16aa\
!	!	!	!	!	!	!	!	!	!	!	!	!	!	!	!	!LO:SIC:v:s=16aa-\JJ
.	.	.	.	.	.	.	.	.	.	.	.	.	.	.	16ff\JJ	16aa\JJ
!	!	!	!	!	!	!	!	!	!	!	!	!	!	!	!	!LO:SIC:v:s=16aa-\LL
4r	.	.	.	.	.	.	.	.	.	.	.	.	4r	4r	16ff\LL	16aa\LL
.	.	.	.	.	.	.	.	.	.	.	.	.	.	.	32ee-\L	32gg\L
!	!	!	!	!	!	!	!	!	!	!	!	!	!	!	!	!LO:SIC:v:s=32aa-\J
.	.	.	.	.	.	.	.	.	.	.	.	.	.	.	32ff\J	32aa\J
.	.	.	.	.	.	.	.	.	.	.	.	.	.	.	16gg\	16bb-\
!	!	!	!	!	!	!	!	!	!	!	!	!	!	!	!	!LO:SIC:v:s=16aa-\JJ
.	.	.	.	.	.	.	.	.	.	.	.	.	.	.	16ff\JJ	16aa\JJ
=5	=5	=5	=5	=5	=5	=5	=5	=5	=5	=5	=5	=5	=5	=5	=5	=5
4E-\	.	.	4ee-\	4gg\	4e-\	San-	4e-\	San-	4b-\	San-	4gg\	San-	4e-\	4g\	4ee-\	4gg\
4E-\	.	.	4ee-\	4gg\	4E-\	-ctus	4e-\	-ctus	4b-\	-ctus	4gg\	-ctus	4e-\	4g\	4ee-\	4gg\
*	*	*	*	*	*	*Xij	*	*Xij	*	*Xij	*	*Xij	*	*	*	*
!	!	!	!	!	!	!	!	!	!	!	!	!	!	!	!	!LO:LB:g=original
=6	=6	=6	=6	=6	=6	=6	=6	=6	=6	=6	=6	=6	=6	=6	=6	=6
*2\right	*	*	*2\right	*2\right	*	*	*	*	*	*	*	*	*	*	*	*
*tremolo	*	*	*tremolo	*tremolo	*	*	*	*	*	*	*	*	*	*	*	*
8e-\L	.	.	8b-\L	8gg\L	8e-\	do-	8e-\	do-	8b-\	do-	8gg\	do-	8r	8r	8r	8r
8e-\	.	.	8b-\	8gg\	16e-\	-mi-	16e-\	-mi-	16b-\	-mi-	16gg\	-mi-	8e-\L	8g\L	8ee-\L	8gg\L
.	.	.	.	.	16e-\	-nus	16e-\	-nus	16b-\	-nus	16gg\	-nus	.	.	.	.
8e-\	.	.	8b-\	8gg\	8e-\	De-	8e-\	de-	8b-\	De-	8gg\	de-	8e-\	8g\	8ee-\	8gg\
8e-\J	.	.	8b-\J	8gg\J	8e-\	-us	8e-\	-us	8b-\	-us	8gg\	-us	8e-\J	8g\J	8ee-\J	8gg\J
*	*	*	*Xtremolo	*Xtremolo	*	*	*	*	*	*	*	*	*	*	*	*
!	!	!	!	!	!	!	!	!	!	!	!	!	!	!	!LO:LB:g=original	!
=7	=7	=7	=7	=7	=7	=7	=7	=7	=7	=7	=7	=7	=7	=7	=7	=7
*	*	*	*	*	*	*ij	*	*ij	*	*	*	*ij	*	*	*	*
8d\L	6	.	8.b-\L	8.ff\L	4d\	De-	4B-\	de-	4b-\	de-	4ff\	de-	8r	8r	8ryy	8r
8d\	.	.	.	.	.	.	.	.	.	.	.	.	8B-/L	8f\L	8b-\L	8ff\L
.	.	.	16b-\Jk	16ff\Jk	.	.	.	.	.	.	.	.	.	.	.	.
8d\	.	.	[4b-\	4ff\	4d\	-us	4B-\	-us	4b-\	-us	4ff\	-us	8B-/	8f\	8b-\	8ff\
8d\J	.	.	.	.	.	.	.	.	.	.	.	.	8B-/J	8f\J	8b-\J	8ff\J
*Xtremolo	*	*	*	*	*	*Xij	*	*Xij	*	*	*	*Xij	*	*	*	*
=8	=8	=8	=8	=8	=8	=8	=8	=8	=8	=8	=8	=8	=8	=8	=8	=8
4c\	7	.	4b-\]	4.ee-\	4c\	Sa-	4c\	Sa-	4b-\	Sa-	4.ee-\	Sa-	2r	2r	8r	8r
.	.	.	.	.	.	.	.	.	.	.	.	.	.	.	8b-\L	8ee-\L
4c\	6\	.	4an\	.	4c\	-ba-	4c\	-ba-	4an\	-ba-	.	.	.	.	8an\	8ee-\
.	.	.	.	8ee-\	.	.	.	.	.	.	8ee-\	-ba-	.	.	8a\J	8ee-\J
!	!	!	!	!	!	!	!	!	!LO:LB:g=original	!	!	!	!	!	!	!
=9	=9	=9	=9	=9	=9	=9	=9	=9	=9	=9	=9	=9	=9	=9	=9	=9
*	*	*	*	*	*2\right	*	*2\right	*	*	*	*2\right	*	*	*2\right	*2\right	*
2B-;\	.	.	2b-;\	2dd;\	2B-;\	-oth	2d;\	-oth	4b-;\	-oth	2dd;\	-oth	2B-/	2f;\	2b-;\	4dd;\
.	.	.	.	.	.	.	.	.	4r	.	.	.	.	.	.	4r
!	!	!	!	!	!	!	!	!	!	!	!LO:LB:g=original	!	!LO:LB:g=original	!LO:LB:g=original	!	!
=10||	=10||	=10||	=10||	=10||	=10||	=10||	=10||	=10||	=10||	=10||	=10||	=10||	=10||	=10||	=10||	=10||
*M3/4	*	*	*M3/4	*M3/4	*M3/4	*	*M3/4	*	*M3/4	*	*M3/4	*	*M3/4	*M3/4	*M3/4	*M3/4
!	!	!	!	!	!	!	!	!	!	!	!	!	!LO:TX:a:t=1	!	!	!
!LO:TX:b:i:t=Pleni	!	!	!	!LO:TX:b:i:t=Pleni	!	!	!	!	!	!	!	!	!LO:TX:a:B:t=erato	!LO:TX:b:i:t=Pleni	!	!LO:TX:b:i:t=Pleni.
!LO:TX:a:B:t=allo moderato	!	!	!LO:TX:a:B:t=allo moderato	!LO:TX:a:B:t=allo	!LO:TX:a:B:t=allo mod.	!	!LO:TX:a:B:t=allo mod.	!	!LO:TX:a:B:t=allo moderato	!	!LO:TX:a:B:t=allo mod.	!	!LO:TX:t=P:problem=strona doklejana w tym miejscu	!LO:TX:a:B:t=allo moderato	!LO:TX:a:B:t=allo moderato	!LO:TX:a:B:t=allo moderato
2.r	.	.	2.r	2.r	4B-\	Ple-	4B-\	Ple-	4b-\	Ple-	4b-\	Ple-	2.r	2.r	2.r	2.r
.	.	.	.	.	4B-\	-ni	4B-\	-ni	4b-\	-ni	4b-\	-ni	.	.	.	.
.	.	.	.	.	4B-\	Sunt	4B-\	Sunt	4b-\	Sunt	4b-\	Sunt	.	.	.	.
!LO:LB:g=original	!	!	!	!	!LO:LB:g=original	!	!LO:LB:g=original	!	!	!	!	!	!	!	!	!
=11	=11	=11	=11	=11	=11	=11	=11	=11	=11	=11	=11	=11	=11	=11	=11	=11
2A-\	4 2	.	8b-\L|	4.ff\	2A-\	cae-	2B-\	cae-	4.a-\	Cae-	4.ff\	Cae-	4r	4r	4r	4r
.	.	.	8b-\|	.	.	.	.	.	.	.	.	.	.	.	.	.
.	.	.	8b-\|	.	.	.	.	.	.	.	.	.	4B-/	4f\	4f/	4dd\
.	.	.	8b-\|	8dd\	.	.	.	.	8f\	.	8dd\	.	.	.	.	.
4G\	6	.	8b-\|	4ee-\	4G\	-li	4B-\	-li	4g\	-li	4ee-\	-li	4G/	4e-\	4g|/	4ee-\
.	.	.	8b-\J|	.	.	.	.	.	.	.	.	.	.	.	.	.
!	!	!	!	!LO:LB:g=original	!	!	!	!	!	!	!	!	!	!	!	!
=12	=12	=12	=12	=12	=12	=12	=12	=12	=12	=12	=12	=12	=12	=12	=12	=12
*	*	*	*	*	*	*ij	*	*ij	*	*	*	*	*	*	*	*
2.r	.	.	2.r	2.r	4B-\	cae-	4B-\	cae-	4b-\	Cae-	4b-\	Cae-	2.r	2.r	2.r	2.r
.	.	.	.	.	4B-\	-li	4B-\	-li	4b-\	-li	4b-\	-li	.	.	.	.
*	*	*	*	*	*	*Xij	*	*Xij	*	*	*	*	*	*	*	*
.	.	.	.	.	4B-\	et	4B-\	et	4b-\	et	4b-\	et	.	.	.	.
=13	=13	=13	=13	=13	=13	=13	=13	=13	=13	=13	=13	=13	=13	=13	=13	=13
*	*	*	*tremolo	*	*	*	*	*	*2\right	*	*	*	*	*	*	*
2E-\	3	.	8b-\L	4.gg\	2E-\	Ter-	4.e-\	Ter-	2b-\	Ter-	4.gg\	Ter-	4r	4r	4r	4r
.	.	.	8b-\	.	.	.	.	.	.	.	.	.	.	.	.	.
.	.	.	8b-\	.	.	.	.	.	.	.	.	.	4e-\	4g\	4g\	4ee-\
.	.	.	8b-\	8ee-\	.	.	8G/	.	.	.	8ee-\	.	.	.	.	.
4D\	6	.	8b-\	4ff\	4D\	-ra	4B-\	-ra	4b-\	-ra	4ff\	-ra	4B-/	4f\	4b-\	4ff\
.	.	.	8b-\J	.	.	.	.	.	.	.	.	.	.	.	.	.
=14	=14	=14	=14	=14	=14	=14	=14	=14	=14	=14	=14	=14	=14	=14	=14	=14
2.r	.	.	2.r	2.r	4B-\	glo-	4B-\	glo-	4b-\	glo-	4b-\	glo-	2.r	2.r	2.r	2.r
.	.	.	.	.	4B-\	-ri-	4B-\	-ri-	4b-\	-ri-	4b-\	-ri-	.	.	.	.
.	.	.	.	.	4B-\	-a	4B-\	-a	4b-\	-a	4b-\	-a	.	.	.	.
=15	=15	=15	=15	=15	=15	=15	=15	=15	=15	=15	=15	=15	=15	=15	=15	=15
4r	.	.	8b-\L	4.aa-\	2D\	tu-	2B-\	tu-	2a-\	tu-	2ff\	tu-	4r	4r	4r	4r
.	.	.	8b-\	.	.	.	.	.	.	.	.	.	.	.	.	.
!	!	!	!	!	!	!	!	!	!	!	!	!	!	!	!	!LO:SIC:v:s=4aa-\
4D\	6 5	.	8b-\	.	.	.	.	.	.	.	.	.	4f\	4a-\	4ff\	4aa\
.	.	.	8b-\	8ff\	.	.	.	.	.	.	.	.	.	.	.	.
4E-\	.	.	8b-\	4gg\	4E-\	-a	4B-\	-a	4g\	-a	4ee-\	-a	4e-\	4g\	4ee-\	4gg\
.	.	.	8b-\J	.	.	.	.	.	.	.	.	.	.	.	.	.
!	!	!	!	!	!	!	!	!	!	!	!	!	!	!	!	!LO:LB:g=original
=16	=16	=16	=16	=16	=16	=16	=16	=16	=16	=16	=16	=16	=16	=16	=16	=16
*	*	*	*	*	*	*ij	*	*ij	*	*ij	*	*ij	*	*	*	*
4r	.	.	8b-\L	4.ff\	2A-\	tu-	2B-\	tu-	2f\	tu-	2dd\	tu-	4r	4r	4r	4r
.	.	.	8b-\	.	.	.	.	.	.	.	.	.	.	.	.	.
!	!	!	!	!	!	!	!	!	!	!	!	!	!	!	!LO:SIC:v:s=4a-\	!
4A-\	4 2	.	8b-\	.	.	.	.	.	.	.	.	.	4B-/	4f\	4a\	4ff\
.	.	.	8b-\	8dd\	.	.	.	.	.	.	.	.	.	.	.	.
4G\	6	.	8b-\	4ee-\	4G\	-a	4B-\	-a	4g\	-a	4ee-\	-a	4G/	4e-\	4g\	4ee-\
.	.	.	8b-\J	.	.	.	.	.	.	.	.	.	.	.	.	.
=17	=17	=17	=17	=17	=17	=17	=17	=17	=17	=17	=17	=17	=17	=17	=17	=17
4r	.	.	8b-\L	4b-\	2D\	tu-	2B-\	tu-	2a-\	tu-	2ff\	tu-	4r	4r	4r	4r
.	.	.	8b-\	.	.	.	.	.	.	.	.	.	.	.	.	.
!	!	!	!	!	!	!	!	!	!	!	!	!	!	!	!	!LO:SIC:v:s=4aa-\
4D\	6 5	.	8b-\	8aa-\L	.	.	.	.	.	.	.	.	4f\	4a-\	4ff\	4aa\
.	.	.	8b-\	8ff\J	.	.	.	.	.	.	.	.	.	.	.	.
4E-\	.	.	8b-\	4gg\	4E-\	-a	4B-\	-a	4g\	-a	4ee-\	-a	4e-\	4g\	4ee-\	4gg\
.	.	.	8b-\J	.	.	.	.	.	.	.	.	.	.	.	.	.
*	*	*	*	*	*	*	*	*	*	*	*	*Xij	*	*	*	*
!	!	!	!	!	!	!	!	!	!LO:LB:g=original	!	!LO:LB:g=original	!	!	!	!LO:LB:g=original	!
=18	=18	=18	=18	=18	=18	=18	=18	=18	=18	=18	=18	=18	=18	=18	=18	=18
!	!	!	!	!	!	!	!	!	!	!	!	!	!	!	!LO:TX:t=P:problem=fragment nieczytelny	!
4r	.	.	8b-\L	4b-\	2A-\	tu-	2B-\	tu-	2f\	tu-	2dd\	tu-	4r	4r	2ryy	4r
.	.	.	8b-\	.	.	.	.	.	.	.	.	.	.	.	.	.
4A-\	4 2	.	8b-\	8ff\L	.	.	.	.	.	.	.	.	4B-/	4f\	.	4ff\
.	.	.	8b-\	8dd\J	.	.	.	.	.	.	.	.	.	.	.	.
4G\	6	.	8b-\	4ee-\	4G\	-a	4B-\	-a	4g\	-a	4ee-\	-a	4G/	4e-\	4g\	4ee-\
.	.	.	8b-\J	.	.	.	.	.	.	.	.	.	.	.	.	.
*	*	*	*Xtremolo	*	*	*Xij	*	*Xij	*	*Xij	*	*	*	*	*	*
!	!	!	!	!	!	!	!LO:LB:g=original	!	!	!	!	!	!	!	!	!
=19	=19	=19	=19	=19	=19	=19	=19	=19	=19	=19	=19	=19	=19	=19	=19	=19
2.A-\	6	.	4e-/	4cc\	4A-\	O-	2.r	.	4e-\	O-	4cc\	O-	2.r	2.r	2.r	2.r
.	.	.	4cc\	4aa-\	4A-\	-ſan-	.	.	4cc\	-ſan-	4aa-\	-ſan-	.	.	.	.
.	.	.	4a-\	4ff\	4A-\	-na	.	.	4a-\	-na	4ff\	-na	.	.	.	.
!	!	!	!	!	!	!	!	!	!	!	!	!	!LO:LB:g=original	!LO:LB:g=original	!	!
=20	=20	=20	=20	=20	=20	=20	=20	=20	=20	=20	=20	=20	=20	=20	=20	=20
*	*	*	*	*	*	*	*	*	*	*	*	*	*	*	*	*2\right
4B-\	3_	.	2f/	2dd\	4B-\	in	2B-\	in	2f\	in	2dd\	in	2.ryy	2f\	2f/	2dd\
4A-\	.	.	.	.	4A-\	.	.	.	.	.	.	.	.	.	.	.
4G\	6	.	4g/	4ee-\	4G\	ex-	4B-\	ex-	4g\	ex-	4ee-\	ex-	.	8g\L	8g/L	8ee-\L
.	.	.	.	.	.	.	.	.	.	.	.	.	.	8b-\J	8b-/J	8gg\J
!	!	!	!	!	!LO:LB:g=original	!	!	!	!	!	!	!	!	!	!	!
=21	=21	=21	=21	=21	=21	=21	=21	=21	=21	=21	=21	=21	=21	=21	=21	=21
4A-\	.	.	8e-/L	8cc\L	4A-\	-cel-	4c\	-cel-	4a-\	-cel-	4ff\	-cel-	8g\L	8b-\L	8b-/L	8gg\L
!	!	!	!	!	!	!	!	!	!	!	!	!	!	!	!LO:SIC:v:s=8a-/J	!
.	.	.	8a-/J	8ff\J	.	.	.	.	.	.	.	.	8f\J	8a-\J	8a/J	8ff\J
4B-\	6 4	.	4g/	4ee-\	4B-\	.	2B-\	.	4g\	.	4ee-\	.	4e-\	4g\	4g/	4ee-\
4BB-/	5 3	.	4f/	4dd\	4BB-/	.	.	.	4f\	.	4dd\	.	4B-/	4f\	4f/	4dd\
=22	=22	=22	=22	=22	=22	=22	=22	=22	=22	=22	=22	=22	=22	=22	=22	=22
4E-\	.	.	4g/	4ee-\	4E-\	-ſis	4B-\	-ſis	4g\	-ſis	4ee-\	-ſis	8E-/L	4e-\	4g/	4ee-\
.	.	.	.	.	.	.	.	.	.	.	.	.	8E-/	.	.	.
!	!	!LO:DY:t=po&colon;	!	!	!	!	!	!	!	!	!	!	!	!	!	!
4E-\|	.	p	4r	4r	4r	.	4r	.	4r	.	4r	.	8E-/	4r	4r	4r
.	.	.	.	.	.	.	.	.	.	.	.	.	8E-/	.	.	.
!	!	!	!	!	!	!	!	!	!	!	!	!	!	!	!LO:TX:a:i:t=Solo	!LO:TX:a:i:t=Solo
4E-\|	.	.	4r	4r	4r	.	4r	.	4r	.	4r	.	8E-/	4r	4gg\	4bb-\
.	.	.	.	.	.	.	.	.	.	.	.	.	8E-/J	.	.	.
!LO:LB:g=original	!	!	!	!	!	!	!	!	!	!	!	!	!	!	!	!
=23	=23	=23	=23	=23	=23	=23	=23	=23	=23	=23	=23	=23	=23	=23	=23	=23
*	*	*	*	*	*	*	*	*	*	*	*	*	*tremolo	*	*	*
4E-\|	.	.	2.r	2.r	2.r	.	2.r	.	2.r	.	2.r	.	8E-/L	1.r	4ee-\	4gg\|
.	.	.	.	.	.	.	.	.	.	.	.	.	8E-/	.	.	.
4E-\|	.	.	.	.	.	.	.	.	.	.	.	.	8E-/	.	4r	4r
.	.	.	.	.	.	.	.	.	.	.	.	.	8E-/	.	.	.
4E-\|	.	.	.	.	.	.	.	.	.	.	.	.	8E-/	.	4b-\	4gg\|
.	.	.	.	.	.	.	.	.	.	.	.	.	8E-/J	.	.	.
!	!	!	!	!LO:LB:g=original	!	!	!	!	!	!	!	!	!	!	!	!
=24	=24	=24	=24	=24	=24	=24	=24	=24	=24	=24	=24	=24	=24	=24	=24	=24
4E-\|	.	.	4r	4r	4r	.	4r	.	4r	.	4r	.	8E-/L	.	4g/	4ee-\
.	.	.	.	.	.	.	.	.	.	.	.	.	8E-/	.	.	.
4E-\|	.	.	4r	4r	4r	.	4r	.	4r	.	4r	.	8E-/	.	4r	4r
.	.	.	.	.	.	.	.	.	.	.	.	.	8E-/J	.	.	.
*	*	*	*	*	*	*	*	*	*	*	*	*	*Xtremolo	*	*	*
4E-\|	.	.	8g/L	8ee-\L	8E-\	in	8B-\	in	8g\	in	8ee-\	in	4r	.	8g\L	8ee-\L
.	.	.	8b-/J	8gg\J	8E-\	ex-	8e-\	ex-	8b-\	ex-	8gg\	ex-	.	.	8b-\J	8gg\J
=25	=25	=25	=25	=25	=25	=25	=25	=25	=25	=25	=25	=25	=25	=25	=25	=25
.	.	.	.	.	.	.	.	.	8qqa-/	.	8qqgg/	.	.	.	8qqb-/	8qqgg/
!	!	!LO:DY:t=for	!	!	!	!	!	!	!	!	!	!	!	!	!LO:SIC:v:s=4a-\	!
4A-\	6	f	8b-/L	8gg\L	4A-\	-cel-	4c\	-cel-	4a-\	-cel-	4ff\	-cel-	4r	4r	4a\	4ff\
.	.	.	8a-/J	8ff\J	.	.	.	.	.	.	.	.	.	.	.	.
4B-\	4	.	4g/	4ee-\	4B-\	.	2B-\	.	4g\	.	4ee-\	.	4e-\	4g\	4g/	4ee-\
4BB-/	3	.	4f/	4dd\	4BB-/	.	.	.	4f\	.	4dd\	.	4B-/	4f\	4f/	4dd\
!	!	!	!	!	!	!	!	!	!	!	!	!	!	!	!	!LO:LB:g=original
=26	=26	=26	=26	=26	=26	=26	=26	=26	=26	=26	=26	=26	=26	=26	=26	=26
*	*	*	*	*	*	*	*	*	*	*	*	*	*tremolo	*	*	*
!	!	!LO:DY:t=po&colon;	!	!	!	!	!	!	!	!	!	!	!	!	!	!
4E-\|	.	p	4g/	4ee-\	4E-\	-ſis	4B-\	-ſis	4g\	-ſis	4ee-\	-ſis	8E-/L	4e-\	4g/	4ee-\
.	.	.	.	.	.	.	.	.	.	.	.	.	8E-/	.	.	.
4E-\|	.	.	4r	4r	4r	.	4r	.	4r	.	4r	.	8E-/	4r	4r	4r
.	.	.	.	.	.	.	.	.	.	.	.	.	8E-/	.	.	.
4E-\|	.	.	4r	4r	4r	.	4r	.	4r	.	4r	.	8E-/	4r	8gg\L	(8bb-\L
!	!	!	!	!	!	!	!	!	!	!	!	!	!	!	!	!LO:SIC:v:s=8aa-\J)
.	.	.	.	.	.	.	.	.	.	.	.	.	8E-/J	.	8ff\J	8aa\J)
=27	=27	=27	=27	=27	=27	=27	=27	=27	=27	=27	=27	=27	=27	=27	=27	=27
4E-\|	.	.	2.r	2.r	2.r	.	2.r	.	2.r	.	2.r	.	8E-/L	1.r	4ee-\	4gg\|
.	.	.	.	.	.	.	.	.	.	.	.	.	8E-/	.	.	.
4E-\|	.	.	.	.	.	.	.	.	.	.	.	.	8E-/	.	4r	4r
.	.	.	.	.	.	.	.	.	.	.	.	.	8E-/	.	.	.
4E-\|	.	.	.	.	.	.	.	.	.	.	.	.	8E-/	.	8b-\L	(8gg\L
!	!	!	!	!	!	!	!	!	!	!	!	!	!	!	!LO:SIC:v:s=8a-\J	!
.	.	.	.	.	.	.	.	.	.	.	.	.	8E-/J	.	8a\J	8ff\J)
!	!	!	!LO:LB:g=original	!	!	!	!	!	!LO:LB:g=original	!	!LO:LB:g=original	!	!	!	!LO:LB:g=original	!
=28	=28	=28	=28	=28	=28	=28	=28	=28	=28	=28	=28	=28	=28	=28	=28	=28
!	!	!	!	!	!	!	!	!	!	!	!	!	!	!	!LO:TX:t=P:problem=fragment nieczytelny	!
4E-\|	.	.	4r	4r	4r	.	4r	.	4r	.	4r	.	8E-/L	.	4ryy	4ee-\|
.	.	.	.	.	.	.	.	.	.	.	.	.	8E-/	.	.	.
4E-\|	.	.	4r	4r	4r	.	4r	.	4r	.	4r	.	8E-/	.	4r	4r
.	.	.	.	.	.	.	.	.	.	.	.	.	8E-/J	.	.	.
*	*	*	*	*	*	*	*	*	*	*	*	*	*Xtremolo	*	*	*
4E-\|	.	.	8g/L	8ee-\L	8E-\	in	8B-\	in	8g\	in	8ee-\	in	4r	.	8g\L	(8ee-\L
.	.	.	8b-/J	8gg\J	8E-\	ex-	8e-\	ex-	8b-\	ex-	8gg\	ex-	.	.	8b-\J	8gg\J)
=29	=29	=29	=29	=29	=29	=29	=29	=29	=29	=29	=29	=29	=29	=29	=29	=29
.	.	.	.	.	.	.	.	.	8qqb-/	.	8qqgg/	.	.	.	.	.
!	!	!LO:DY:t=for	!	!	!	!	!	!	!	!	!	!	!	!	!	!
4A-\	6 5	f	8b-/L	8gg\L	4A-\	-cel-	4c\	-cel-	4a-\	-cel-	4ff\	-cel-	4r	4r	8b-\L	(8gg\L
!	!	!	!	!	!	!	!	!	!	!	!	!	!	!	!LO:SIC:v:s=8a-\J	!
.	.	.	8a-/J	8ff\J	.	.	.	.	.	.	.	.	.	.	8a\J	8ff\J)
4B-\	6 4	.	4g/	4ee-\	4B-\	.	2B-\	.	(4g\	.	4ee-\	.	4e-\	4g\	4g/	4ee-\|
4BB-/	5 3	.	4f/	4dd\	4BB-/	.	.	.	4f\)	.	4dd\	.	4B-/	4f\	4f/	4dd\|
!	!	!	!	!	!	!	!	!	!	!	!	!	!LO:LB:g=original	!	!	!
=30	=30	=30	=30	=30	=30	=30	=30	=30	=30	=30	=30	=30	=30	=30	=30	=30
!	!	!	!	!	!	!	!	!	!	!	!	!	!LO:TX:t=P:problem=fragment nieczytelny	!	!	!
4E-\	.	.	4g/	4ee-\	4E-\	-ſis	4B-\	-ſis.	4g\	-sis.	4ee-\	-ſis.	2.ryy	4e-\	4g/	4ee-\|
4E-\	.	.	4g/	4ee-\	4r	.	4r	.	4r	.	4r	.	.	4e-\	4g/	4ee-\|
4E-\	.	.	4g/	4ee-\	4r	.	4r	.	4r	.	4r	.	.	4e-\	4g/	4ee-\|
=31	=31	=31	=31	=31	=31	=31	=31	=31	=31	=31	=31	=31	=31	=31	=31	=31
*	*	*	*	*	*	*	*	*	*	*	*	*	*	*	*k[b-e-]	*
!	!	!	!	!	!	!	!	!	!LO:TX:a:t=1.	!	!	!	!	!	!	!
2E-\	.	.	2g/	2ee-\	2.r	.	2.r	.	2.r	.	2.r	.	2G/	2e-\	2g/	2ee-\
4r	.	.	4r	4r	.	.	.	.	.	.	.	.	4r	4r	4r	4r
==	==	==	==	==	==	==	==	==	==	==	==	==	==	==	==	==
*-	*-	*-	*-	*-	*-	*-	*-	*-	*-	*-	*-	*-	*-	*-	*-	*-
!!!system-decoration: [(g1)][(g2)][(g3)][(g4)]<s11>
!!!RDF**kern: | = vertical stroke
!!!ENC: Kamil Watkowski
!!!END: 2020-09-09
!!!ENC: Andrzej Kubcizek
!!!END: 2022-01-26
